X: 107
T:Hopetown House (#303)
M:4/4
L:1/8
S:Caledonian Muse, London 1785
R:Reel
K:G
d2|:(3EEE BE dEEe|dBAF DEFA|(3EEE BE dEEe|dBAF BE E2:|
|:Eeef gefd|BdAF DEFD|Eeef gefd|BdFA BE E2|
|1Eeef gefd|BdAF DEFD:|2gfge fde^c|dBAF BE E2||
%
% "Hoptown House" as it was then named was first printed in the 
% 9th Number of Robert Bremner's A Collection of Scots Reels, and 
% Country Dances, Edinburgh 1760. The editor has taken the liberty
% of supplying it with a second finish.
% [THE B PART IS PRINTED WITH 6 BARS REPEATED IN THE BOOK]

